symbols/web/add_to_home_screen/materialsymbolssharp/add_to_home_screen_wght700gradN25_48px.svg

<svg xmlns="http://www.w3.org/2000/svg" height="48" width="48"><path d="M8.25 32.65 6.2 30.6l11.7-11.65H9.6V16.1h13.25v13.25h-2.9v-8.4Zm7.4 9.65H36.4v-1.55H15.65Zm0-35.1H36.4V5.65H15.65Zm-4.6 39.7V35.7h4.6v2.2H36.4V10.1H15.65v2.15h-4.6V1.1h29.9v45.8Zm4.6-39.7V5.65 7.2Zm0 35.1v-1.55 1.55Z"/></svg>

<svg xmlns="http://www.w3.org/2000/svg" height="48" width="48"><path d="M8.25 32.65 6.2 30.6 17.9 18.95H9.6V16.1H22.85V29.35H19.95V20.95ZM15.65 42.3H36.4V40.75H15.65ZM15.65 7.2H36.4V5.65H15.65ZM11.05 46.9V35.7H15.65V37.9H36.4V10.1H15.65V12.25H11.05V1.1H40.95V46.9ZM15.65 7.2V5.65V7.2ZM15.65 42.3V40.75V42.3Z"/></svg>
